X:14445
T:Rond a Lois Ruellan
D:transcribed from CD "Sonneurs de Vielle en Bretagne" SCM 024
Z:abc transcription Simon Wascher
N:please mail errors to simon.wascher@chello.at
M:2/4
L:1/8
K:C
g2ag|fede|fgaf|g2c2|
g2ag|fede|fgaf|g2c2||
e2dc|Bcd2|dgfe|dfec|
e2dc|Bcd2|dgfe|dec2|]
